X: 5
T: The Maid At The Well
R: jig
M: 6/8
L: 1/8
K: Gmaj
|: G2 D EGD | GAB c3 | ded ABG | AGE EDE |G2 D EDE | GAB c3 | ded ABG |1 AGF GFG :|2 AGF GBd ||gdd edd | gdB ~c3 | ded ABG | AGE E2 f |gdd edd | gdB ~c3 | ded ABG | AGF GBd |gdd edd | gdB ~c3 | ded ABG | AGE EDE |G2 D EGD|GAB c3 | ded ABG | AGF G3 ||


Tune 752	Setting 13854

